X:759
T:Trumpet Hornpipe
C:Traditional
S:Colin Hume's website,  colinhume.com  - chords can also be printed below the stave.
Q:1/4=140
M:4/4
L:1/8
K:G
P:A
|: D2 | "G"(3GGGG2 (3GGGG>d | "G"B>GB>d g>dB>G | "D"(3DDDD2 (3DDDD>A | "D7"F>DF>A c>AF>D |
"G"(3GGGG2 (3GGGG>d | "G"B>GB>d "Em"g2g2 | "D"f>ag>f "A7"e>gf>e | "D"d2d2 "D7"d2 :|
P:B
|: B>c | "G"(3dddd2 (3ddd d2 | "C"e>fg>f e>dc>B | "Am"c>de>d c>BA>G | "D"F>GA>G F>DE>F |
"G"(3GGG G2 "G7"(3[=FG][FG][FG] [FG]2 | "C"(3[EG][EG][EG] [EG]2 "Cm"(3[_EG][EG][EG] [EG]2 | "D"F>gf>e d>cB>A | "G"G2B2 G2 :|

